resources/svg/regular/list-plus.svg

<svg xmlns="http://www.w3.org/2000/svg" fill="currentColor" stroke="none" viewBox="0 0 24 24"><path d="M19 15v-3h-2v3h-3v2h3v3h2v-3h3v-2h-.937zM4 7h11v2H4zm0 4h11v2H4zm0 4h8v2H4z"/></svg>

<svg xmlns="http://www.w3.org/2000/svg" fill="currentColor" stroke="none" viewBox="0 0 24 24"><path d="M19 15L19 12 17 12 17 15 14.78 15 14 15 14 17 14.78 17 17 17 17 20 19 20 19 17 21.063 17 22 17 22 15 21.063 15zM4 7H15V9H4zM4 11H15V13H4zM4 15H12V17H4z"/></svg>
